X:1
T:Title
%%score { 1 | ( 2 3 ) }
L:1/8
M:6/8
K:F
V:1 treble nm="Grand Piano"
V:2 bass 
V:3 bass 
V:1
 z3 z2[Q:1/4=81] C | [A,F]GA G2 C | [EG]A[CGB] [CFA]2 [CAc] | [CAc]2 [CFA] [Ac]B[CFA] | %4
[M:5/8] [CEG]-[CEG]- [CEG]3 |[M:1/8] C |[M:3/4] [CGB]2 [CGB] [CFA]2 [A,F] | %7
 [Bd]2 [Bd] [CAc]2 [DGB] | [FA]2 [FA]G AG |[M:13/8] [A,F]-[A,F]- [A,F]3 z z z z z z z2 | %10
[M:3/4] [DF]6 | [A,CF]6 |] %12
V:2
 z3 z2 F, | z C[F,F] [E,G,C]2 C, | z FE, F,2 F, | F,2 F, z GF, |[M:5/8] C,-C,- C,3 |[M:1/8] C, | %6
[M:3/4] C,D, E, F,2 F, | [B,,B,]2 [D,B,] F,2 B,, | [C,C]2 [C,C] [C,E,C]2 [C,E,B,] | %9
[M:13/8] [F,,F,]-[F,,F,]- [F,,F,]3 z z z z z z z2 |[M:3/4] [B,,B,]6 | F,,6 |] %12
V:3
 x6 | .F,3 z3 | .[C,C]3 z3 | z3 .[F,C]3 |[M:5/8] x5 |[M:1/8] x |[M:3/4] x6 | x6 | x6 | %9
[M:13/8] x13 |[M:3/4] x6 | x6 |] %12

